Origami/24x24/apps/xt7-player-mpv.svg

<svg width="24" height="24" version="1" xmlns="http://www.w3.org/2000/svg">
 <circle cx="12" cy="12.5" r="10" style="opacity:.2"/>
 <circle cx="12" cy="12" r="10" style="fill:#4f4f4f"/>
 <path d="m12 5.5a7 7 0 0 0 -7 7 7 7 0 0 0 7 7 7 7 0 0 0 7 -7 7 7 0 0 0 -7 -7zm-3 3 3.5 2 3.5 2-3.5 2-3.5 2z" style="opacity:.2"/>
 <path d="m12 5a7 7 0 0 0 -7 7 7 7 0 0 0 7 7 7 7 0 0 0 7 -7 7 7 0 0 0 -7 -7zm-3 3l3.5 2 3.5 2-3.5 2-3.5 2v-8z" style="fill:#ffffff"/>
 <path d="M 12 2 A 10 10 0 0 0 2 12 A 10 10 0 0 0 2.0097656 12.292969 A 10 10 0 0 1 12 2.5 A 10 10 0 0 1 21.990234 12.207031 A 10 10 0 0 0 22 12 A 10 10 0 0 0 12 2 z" style="fill:#ffffff;opacity:.1"/>
</svg>

<svg xmlns="http://www.w3.org/2000/svg" width="24" height="24" version="1">
 <circle style="opacity:0.2" cx="12" cy="12.5" r="10"/>
 <circle style="fill:#4f4f4f" cx="12" cy="12" r="10"/>
 <path style="opacity:0.2" d="m 12,5.5 a 7,7 0 0 0 -7,7 7,7 0 0 0 7,7 7,7 0 0 0 7,-7 7,7 0 0 0 -7,-7 z m -3,3 3.5,2 3.5,2 -3.5,2 -3.5,2 z"/>
 <path style="fill:#ffffff" d="M 12 5 A 7 7 0 0 0 5 12 A 7 7 0 0 0 12 19 A 7 7 0 0 0 19 12 A 7 7 0 0 0 12 5 z M 9 8 L 12.5 10 L 16 12 L 12.5 14 L 9 16 L 9 8 z"/>
 <path style="opacity:0.1;fill:#ffffff" d="M 12 2 A 10 10 0 0 0 2 12 A 10 10 0 0 0 2.0097656 12.292969 A 10 10 0 0 1 12 2.5 A 10 10 0 0 1 21.990234 12.207031 A 10 10 0 0 0 22 12 A 10 10 0 0 0 12 2 z"/>
</svg>
